media/menu_svg.svg

<svg xmlns="http://www.w3.org/2000/svg" viewBox="0,0,256,256" width="50px" height="50px"><g transform="translate(2.56,2.56) scale(0.98,0.98)"><g fill="none" fill-rule="nonzero" stroke="none" stroke-width="none" stroke-linecap="butt" stroke-miterlimit="10" stroke-dasharray="" stroke-dashoffset="0" font-family="none" font-size="none" style="mix-blend-mode: normal"><path transform="scale(5.12,5.12)" d="M50,7.5v5h-50v-5zM50,22.5v5h-50v-5zM50,37.5v5h-50v-5z" id="strokeMainSVG" fill="#ffffff" stroke="#ffffff" stroke-width="2" stroke-linejoin="round"></path><g transform="scale(5.12,5.12)" fill="#000000" stroke="none" stroke-width="1" stroke-linejoin="miter"><path d="M0,7.5v5h50v-5zM0,22.5v5h50v-5zM0,37.5v5h50v-5z"></path></g></g></g></svg>

<svg viewBox="0 0 50 50"><path d="M 0 7.5 L 0 12.5 L 50 12.5 L 50 7.5 Z M 0 22.5 L 0 27.5 L 50 27.5 L 50 22.5 Z M 0 37.5 L 0 42.5 L 50 42.5 L 50 37.5 Z"/></svg>
